X:1
T:Title
%%score { ( 1 3 ) | ( 2 4 ) }
L:1/8
M:4/4
K:F
V:1 treble nm="Grand Piano"
V:3 treble 
V:2 bass 
V:4 bass 
V:1
 z4 z2[Q:1/4=104] (3[B,D][C_E][^C=E] | [DF]2 [DB]2 [Fd]2 (3[DB][_EA][FB] | c2 G2 c2 [GB]2 | %3
 A>A G>G F>F _e>e | [Fd]6 (3[B,D][C_E][^C=E] | [DF]2 [DB]2 [Fd]2 (3[DB][_EA][FB] | c2 G2 c2 [GB]2 | %7
 A>A _e>e G>G A>F | [B,DB]6 z2 | [Fd]>[E^c] [Fd]2 z4 | [Fd]>[E^c] [Fd]2 z4 | %11
 [Fd]>[E^c] [Fd]>[_E=c] [DB]>[DA] (3[D-B]D[B,DG] | A4 A2 z2 | _e>d e2 z4 | _e>d e2 z4 | %15
 [c_e]>[Bd] [Ac]>[GB] A>G F>_E | D6 z2 | [Fd]>[E^c] [Fd]2 z4 | [Fd]>[E^c] [Fd]2 z4 | %19
 [Fd]>[Fd] [_Ec]>[Fd] _e>d (3=Bcd | c4 G2 z2 | [GB]>[GB] [GB]2 ^C4 | d>d d2 F,4 | %23
 [Af]>[Ae] [Af]>[A_e] d>c G>A | [DB]6 z2 | [CFA]2 [CFA]>[CGB] [CAc]2 [CFA]2 | %26
 [Bd]>[Ac] [GB]>[^FA] [GB]4 | [EG]2 [EG]>[FA] [GB]2 [Ac]2 | [ce]>[Bd] [Ac]>[GB] A4 | %29
 A2 A>[GB] [Ac]2 [FA]2 | [FB]>[FA] [FB]>[Fc] [Fd]2 [Fd]2 | [Fc]2 [FA]>[FA] [Ac]>[GB] [FA]>[EG] | %32
 F6 z2 | [Fd]>[E^c] [Fd]2 z4 | [Fd]>[E^c] [Fd]2 z4 | %35
 [Fd]>[E^c] [Fd]>[_E=c] [DB]>[DA] (3[D-B]D[B,DG] | A4 A2 z2 | _e>d e2 z4 | _e>d e2 z4 | %39
 [c_e]>[Bd] [Ac]>[GB] A>G F>_E | D6 z2 | [Fd]>[E^c] [Fd]2 z4 | [Fd]>[E^c] [Fd]2 z4 | %43
 [Fd]>[Fd] [_Ec]>[Fd] _e>d (3=Bcd | c4 G2 z2 | [GB]>[GB] [GB]2 ^C4 | d>d d2 F,4 | %47
 [Af]>[Ae] [Af]>[A_e] d>c G>A |[M:8/4] [DB]8 z8 |] %49
V:2
 z4 z2 (3[B,,F,][B,,F,][B,,G,] | [B,,B,]2 [B,,F,]2 [B,,B,]2 (3[B,,F,][C,F,][D,B,] | %2
 [_E,G,_E]2 [E,CE]2 [E,G,E]2 [=E,C]2 | %3
 [F,CF]>[F,CF] [F,B,_E]>[F,B,E] [F,A,E]>[F,A,E] [F,A,F]>[F,A,F] | %4
 [B,,B,]6 (3[B,,F,][B,,F,][B,,G,] | [B,,B,]2 [B,,F,]2 [B,,B,]2 (3[B,,F,][C,F,][D,B,] | %6
 [_E,G,_E]2 [E,CE]2 [E,G,E]2 [=E,C]2 | [F,CF]>[F,CF] [F,A,F]>[F,A,F] [F,C_E]>[F,CE] [F,CE]>[F,CE] | %8
 A,,6 z2 | [B,,B,]>[B,,B,] [B,,B,]2 z4 | [B,,B,]>[B,,B,] [B,,B,]2 z4 | %11
 [B,,B,]>[B,,B,] [B,,B,]>[B,,B,] [B,,B,]>[B,,B,] (3[B,,B,]-[B,,B,A]B,, | [F,C_E]4 [F,CE]2 z2 | %13
 [F,CF]>[F,=B,F] [F,CF]2 z4 | [F,CF]>[F,=B,F] [F,CF]2 z4 | F,>F, F,>F, [F,F]>[F,_E] [F,D]>[F,C] | %16
 [B,,F,B,]6 z2 | [B,,B,]>[B,,B,] [B,,B,]2 z4 | [B,,B,]>[B,,B,] [B,,B,]2 z4 | %19
 [B,,B,]>[B,,B,] [B,,B,]>[B,,B,][K:treble] [B,G]>[B,F] (3:2:2[G,DF]2 [G,F] | %20
 [_E,G,_E]4 [E,CE]2 z2 | [E,B,^C]>[E,B,C] [E,B,C]2 [E,B,]4 | [F,B,F]>[F,B,F] [F,B,F]2 z4 | %23
 [F,C]>[F,C] [F,C]>[F,C] [F,B,F]>[F,A,_E] [F,CE]>[F,E] | [B,,F,]6 z2 | F,2 F,>F, F,2 F,2 | %26
 F,>F, F,>F, [C,C]4 | [C,C]2 [C,C]>[C,C] [C,C]2 [C,C]2 | [C,C]>[C,C] [C,C]>[C,C] [F,CF]4 | %29
 [F,CF]2 [F,CF]>[F,C] [F,C]2 [_E,C]2 | [D,B,]>[_E,C] [D,B,]>[C,A,] [B,,B,]2 [=B,,_A,]2 | %31
 [C,A,]2 [C,C]>[C,C] [C,C]>[C,C] [C,C]>[C,B,] | A,2 z2 F,2 z2 | [B,,B,]>[B,,B,] [B,,B,]2 z4 | %34
 [B,,B,]>[B,,B,] [B,,B,]2 z4 | %35
 [B,,B,]>[B,,B,] [B,,B,]>[B,,B,] [B,,B,]>[B,,B,] (3[B,,B,]-[B,,B,A]B,, | [F,C_E]4 [F,CE]2 z2 | %37
 [F,CF]>[F,=B,F] [F,CF]2 z4 | [F,CF]>[F,=B,F] [F,CF]2 z4 | F,>F, F,>F, [F,F]>[F,_E] [F,D]>[F,C] | %40
 [B,,F,B,]6 z2 | [B,,B,]>[B,,B,] [B,,B,]2 z4 | [B,,B,]>[B,,B,] [B,,B,]2 z4 | %43
 [B,,B,]>[B,,B,] [B,,B,]>[B,,B,][K:treble] [B,G]>[B,F] (3:2:2[G,DF]2 [G,F] | %44
 [_E,G,_E]4 [E,CE]2 z2 | [E,B,^C]>[E,B,C] [E,B,C]2 [E,B,]4 | [F,B,F]>[F,B,F] [F,B,F]2 z4 | %47
 [F,C]>[F,C] [F,C]>[F,C] [F,B,F]>[F,A,_E] [F,CE]>[F,E] |[M:8/4] [B,,F,]8 z8 |] %49
V:3
 x8 | x8 | x8 | x8 | x8 | x8 | x8 | x8 | x8 | x8 | x8 | x8 | x8 | x8 | x8 | x8 | x8 | x8 | x8 | %19
 x8 | x8 | x8 | x8 | x8 | x8 | x8 | x8 | x8 | x8 | x8 | x8 | x8 | z z/ G,/ A,4 z2 | x8 | x8 | x8 | %36
 x8 | x8 | x8 | x8 | x8 | x8 | x8 | x8 | x8 | x8 | x8 | x8 |[M:8/4] x16 |] %49
V:4
 x8 | x8 | x8 | x8 | x8 | x8 | x8 | x8 | x8 | x8 | x8 | x8 | x8 | x8 | x8 | x8 | x8 | x8 | x8 | %19
 x4[K:treble] x4 | x8 | x8 | x8 | x8 | x8 | x8 | x8 | x8 | x8 | x8 | x8 | x8 | %32
 F,3- F,/-[F,G,]/ z z/ _E,/ D,>C, | x8 | x8 | x8 | x8 | x8 | x8 | x8 | x8 | x8 | x8 | %43
 x4[K:treble] x4 | x8 | x8 | x8 | x8 |[M:8/4] x16 |] %49

